X:1
T:A Major Oliver Holden, 1803
T:Charles Wesley, 1745 87. 87. 87. 87.
T:Anstruther No copyright. Transcribed from The Charlestown Collection, 1803.
%%score [ 1 2 3 4 ]
L:1/8
Q:1/2=80
M:4/4
K:A
V:1 treble nm="Treble" snm="Tr."
V:2 treble nm="Counter" snm="C."
V:3 treble-8 nm="Tenor" snm="T."
V:4 bass nm="Bass" snm="B."
V:1
 c4 A4 | d6 B2 | d4 B4 | c4 c4 || A4 c4 | (G2 A2) (G2 A2) | B4 A4 | G8 || c4 A4 | F6 G2 | %10
w: 1.~Light of|those whose|drea- ry|dwel- ling|Bor- ders|on * the *|shades of|death;|Come, and|Thy dear|
 (A2 d2) (d2 c2) | B4 B4 || A4 B4 | c4 (B2 d2) | c4 B4 | c8 || A4 c4 | A6 B2 | c4 A4 | A4 A4 || %20
w: self * re- *|vea- ling,|Dis- si-|pate the *|clouds be-|neath;|The new|heav'n and|earth's cre-|a- tor,|
 c4 A4 | A4 A4 | G4 A4 | (c4 B4) || A4 c4 | A6 B2 | c4 B4 | c4 c4 || A4 (c2 d2) | e4 (f2 d2) | %30
w: In our|dee- pest|dark- ness|rise, *|Scat- tering|all the|night of|na- ture,|Pour- ing *|day up- *|
 c4 B4 | c8 |] %32
w: on our|eyes.|
V:2
 E4 E4 | F6 E2 | F4 E4 | E4 E4 || E4 E4 | E4 E4 | ^D4 D4 | E8 || E4 E4 | F6 E2 | F4 E4 | E4 E4 || %12
w: 2.~Still we|wait for|Thy ap-|pea- ring,|Life and|joy Thy|beams im-|part;|Cha- sing|all our|fears, and|chee- ring|
 E4 D4 | (C2 E2) F4 | E4 E4 | E8 || E4 E4 | E6 E2 | E4 F4 | E4 E4 || A4 A4 | A4 A4 | E4 E4 | E8 || %24
w: Eve- ry|poor * be-|nigh- ted|heart;|Come, and|ma- ni-|fest the|fa- vor|God hath|for our|ran- somed|race;|
 E4 E4 | E6 E2 | E4 E4 | E4 E4 || A4 A4 | A4 A4 | A4 E4 | E8 |] %32
w: Come, Thou|u- ni-|ver- sal|Sav- ior,|Come, and|bring the|gos- pel-|grace.|
V:3
 A4 E4 | A6 G2 | F4 E4 | A4 A4 || c4 A4 | (B2 c2) (B2 A2) | G4 F4 | E8 || A4 E4 | A6 G2 | F4 B4 | %11
w: 3.~Save us|in Thy|great com-|pas- sion,|O Thou|mild * pa- *|ci- fic|Prince;|Give the|know- ledge|of sal-|
 G4 E4 || c4 d4 | (e2 A2) (d2 B2) | A4 G4 | A8 || c4 A4 | c6 B2 | A4 F4 | c4 c4 || e4 c4 | %21
w: va- tion,|Give the|par- * don *|of our|sins;|By Thy|all- re-|sto- ring|me- rit|Eve- ry|
 (d2 e2) (d2 c2) | B4 A4 | (A4 G4) || c4 A4 | c6 B2 | A4 E4 | A4 A4 || (e2 f2) (e2 d2) | %29
w: bur- * dened *|soul re-|lease; *|Eve- ry|wea- ry|wan- dering|spi- rit|Guide * in- *|
 c4 (d2 B2) | A4 G4 | A8 |] %32
w: to Thy *|per- fect|peace.|
V:4
 A,,4 C,4 | D,6 E,2 | D,4 E,4 | A,,4 A,,4 || A,4 A,,4 | E,4 E,4 | B,,4 B,,4 | E,8 || A,,4 C,4 | %9
 D,6 E,2 | D,4 E,4 | E,4 E,4 || C,4 B,,4 | A,,4 D,4 | E,4 E,4 | A,,8 || A,4 A,,4 | A,6 E,2 | %18
 C,4 D,4 | C,4 A,,4 || A,4 A,4 | A,4 A,,4 | E,4 A,,4 | E,8 || A,4 A,,4 | A,6 E,2 | C,4 E,4 | %27
 A,,4 A,,4 || (C,2 D,2) (C,2 B,,2) | A,,4 D,4 | E,4 E,4 | A,,8 |] %32

